icon-themes/breeze_svg/cmd/32/pagedialog.svg

<svg viewBox="0 0 32 32" xmlns="http://www.w3.org/2000/svg"><path d="m6 4v24h9v-1h-8v-22h11v7h7v13h1v-14l-7-7h-1z" fill="#4d4d4d"/><path d="m17 26c-.5523 0-1 .4477-1 1s.4477 1 1 1 1-.4477 1-1-.4477-1-1-1zm4 0c-.5523 0-1 .4477-1 1s.4477 1 1 1 1-.4477 1-1-.4477-1-1-1zm4 0c-.5523 0-1 .4477-1 1s.4477 1 1 1 1-.4477 1-1-.4477-1-1-1z" fill="#f47750"/></svg>

<svg xmlns="http://www.w3.org/2000/svg" viewBox="0 0 32 32">
 <path 
     style="fill:#4d4d4d" 
     d="M 6 4 L 6 28 L 15 28 L 15 27 L 7 27 L 7 5 L 18 5 L 18 12 L 25 12 L 25 25 L 26 25 L 26 11 L 19 4 L 18 4 L 6 4 z "
     />
 <path 
     style="fill:#f47750" 
     d="M 17 26 C 16.4477 26 16 26.4477 16 27 C 16 27.5523 16.4477 28 17 28 C 17.5523 28 18 27.5523 18 27 C 18 26.4477 17.5523 26 17 26 z M 21 26 C 20.4477 26 20 26.4477 20 27 C 20 27.5523 20.4477 28 21 28 C 21.5523 28 22 27.5523 22 27 C 22 26.4477 21.5523 26 21 26 z M 25 26 C 24.4477 26 24 26.4477 24 27 C 24 27.5523 24.4477 28 25 28 C 25.5523 28 26 27.5523 26 27 C 26 26.4477 25.5523 26 25 26 z "
     />
</svg>
